X: 502
T: Lady Jean Hume's Reel
R: jig
B: Robert Bremner "A Collection of Scots Reels or Country Dances" 1757 p.50 #2
S: http://imslp.org/wiki/A_Collection_of_Scots_Reels_or_Country_Dances_(Bremner,_Robert)
Z: 2013 John Chambers <jc:trillian.mit.edu>
M: 6/8
L: 1/8
K: C
% - - - - - - - - - - - - - - - - - - - - - - - - -
V: 1
|:\
c2g- geg | gea Tg2e | c2g g(a/g/f/e/) | ded e2d |\
c2g- geg | gea Tg2e | (f/e/f/g/a) gfe | ded Te2d :|
|:\
c>dc cGc | cGc Te2d | c>dc cGE | DED Te2d |\
cdc cGE | GAB cGE | FGA GFE | DED Te2d :|
% - - - - - - - - - - - - - - - - - - - - - - - - -
V: 2 clef=bass middle=d
|:\
c3 c3 | c3 c3 | c3 c3 | d3 d3 |\
c3 c3 | c3 c3 | c3 c3 | d3 d3 :|
|:\
c3 c3 | c3 c3 | c3 c3 | d3 d3 |\
c3 c3 | c3 c3 | f3 e3 | d3 d3 :|
% - - - - - - - - - - - - - - - - - - - - - - - - -

% missing page

% missing page

%%sep 1 1 500
%%sep 1 1 500
